!!!COM: Corelli, Arcangelo
!!!OPR: Sonata da camera
!!!OPS: 4
!!!ONM: 4
!!!OMV: 4
!!!OTL: Giga
!!!OMD: Allegro
**kern	**fb	**kern	**kern
*part3	*part3	*part2	*part1
*staff3	*	*staff2	*staff1
*I"Violone & Organo	*	*I"Violino II	*I"Violino I
*clefF4	*	*clefG2	*clefG2
*k[f#c#]	*	*k[f#c#]	*k[f#c#]
*M12/8	*	*M12/8	*M12/8
=	=	=	=
!	!	!	!LO:TX:a:t=Giga Allegro
8D	.	8f#	8a
=1	=1	=1	=1
4.D	.	4.f#	4.a
8r	.	8r	8r
8r	.	8r	8r
8d	.	8ff#	8a
4.d	.	4.ff#	(8ddL
.	.	.	8a)
.	.	.	8ddJ
8r	.	8r	(8ff#L
8r	.	8r	8dd)
8d	.	8ff#	8ff#J
=2	=2	=2	=2
8c#L	6	(8eeL	4.aa
8B	.	8dd	.
8c#J	.	8eeJ)	.
8AL	.	(8cc#L	8r
8B	.	8dd	8r
8c#J	.	8eeJ)	8aa
4.d	.	4.a	(8ff#L
.	.	.	8gg)
.	.	.	8aaJ
8r	.	8r	(8ff#L
8r	.	8r	8gg)
8d	.	8ff#	8aaJ
=3	=3	=3	=3
8c#L	6	(8aaL	4.ee
8B	.	8gg)	.
8c#J	.	8aaJ	.
8AL	.	(8cc#L	8r
8B	.	8dd)	8r
8c#J	.	8eeJ	8a
4.B	5	4.dd	(8ddL
.	.	.	8ee)
.	.	.	8ddJ
8r	.	8r	(8ddL
8r	.	8r	8ee)
8B	#6|	8b	8ddJ
=4	=4	=4	=4
8AL	.	(8cc#L	4.cc#
8B	.	8dd)	.
8AJ	.	8eeJ	.
8GL	6 4	(8cc#L	8r
8A	.	8dd)	8r
8GJ	.	8eeJ	8a
4.F#	6	4.a	(8ddL
.	.	.	8a)
.	.	.	8ddJ
8r	.	8r	(8ddL
8r	.	8r	8a)
8D	.	8dd	8ddJ
=5	=5	=5	=5
8GL	.	(8ddL	4.b
8D	.	8b)	.
8GJ	.	8ddJ	.
8GL	.	(8bL	8r
8D	.	8dd)	8r
8GJ	.	8bJ	8ee
4.E	#	4.g#X	(8eeL
.	.	.	8b)
.	.	.	8eeJ
8r	.	8r	(8eeL
8r	.	8r	8b)
8E	.	8ee	8eeJ
=6	=6	=6	=6
8AL	.	(8eeL	4.cc#
8E	.	8cc#)	.
8AJ	.	8eeJ	.
8AL	.	(8cc#L	8r
8E	.	8ee)	8r
8AJ	.	8cc#J	8ee
4.F#	6	4.a	(8aaL
.	.	.	8ff#)
.	.	.	8aaJ
8r	.	8r	(8ddL
8r	.	8r	8ff#)
8F#	.	8aa	8ddJ
=7	=7	=7	=7
4.G	.	4.gg	(8bL
.	.	.	8gg)
.	.	.	8bJ
4.A	7	8r	(8cc#L
.	.	8r	8aa)
.	.	8aa	8cc#J
4.B	5	4.ff#	(8ddL
.	.	.	8ee)
.	.	.	8ff#J
4.F#	6	8r	(8ddL
.	.	8r	8ee)
.	.	8aa	8ff#J
=8	=8	=8	=8
4.G	6 5	(8ggL	(8bL
.	.	8aa)	8cc#)
.	.	8ff#J	8ddJ
4.A	.	8.eeL	(8aL
.	.	.	8dd)
.	.	8.aaJ	.
.	.	.	8cc#J
4.D	.	4.ff#	4.d
[4.d	.	8r	(8ff#L
.	.	8r	8aa)
.	.	8dd	8ff#J
=9	=9	=9	=9
4.d]	4 2	4.ee	(8ggL
.	.	.	8ee)
.	.	.	8ggJ
4.c#	6	4.ee	(8aaL
.	.	.	8ee)
.	.	.	8aaJ
4.d	.	4.a	(8ff#L
.	.	.	8aa)
.	.	.	8ff#J
4.A	.	8r	(8eeL
.	.	8r	8aa)
.	.	8cc#	8aJ
=10	=10	=10	=10
4.F#	6 5	4.a	(8ddL
.	.	.	8ff#)
.	.	.	8ddJ
4.G#X	5	4.b	(8bL
.	.	.	8ee)
.	.	.	8bJ
4.A	.	4.e	(8cc#L
.	.	.	8ee)
.	.	.	8cc#J
4.G#Xi	6	8r	(8bL
.	.	8r	8ee)
.	.	8ee	8bJ
=11	=11	=11	=11
4.F#	6	4.dd	(8aL
.	.	.	8dd)
.	.	.	8aJ
4.E	6 #	4.cc#	(8g#XL
.	.	.	8cc#)
.	.	.	8g#J
4.D	6	4.b	(8f#L
.	.	.	8b)
.	.	.	8f#J
4.C#	6	[4.a	(8eL
.	.	.	8a)
.	.	.	8eJ
=12	=12	=12	=12
4.D	6 5	4.a]	(8f#L
.	.	.	8dd)
.	.	.	8cc#J
4.E	#	4.g#X	(8bL
.	.	.	8ee)
.	.	.	8ddJ
4.A	.	4.a	(8cc#L
.	.	.	8ee)
.	.	.	8cc#J
4.G#X	6	8r	(8bL
.	.	8r	8ee)
.	.	8ee	8bJ
=13	=13	=13	=13
4.F#	6	4.dd	(8aL
.	.	.	8dd)
.	.	.	8aJ
4.E	6 #	4.cc#	(8g#XL
.	.	.	8cc#)
.	.	.	8g#J
4.D	6	4.b	((8f#L
.	.	.	8b))
.	.	.	8f#J
4.C#	6	[4.a	(8eL
.	.	.	8a)
.	.	.	8eJ
=14	=14	=14	=14
4.D	6 5	4.a]	(8f#L
.	.	.	8dd)
.	.	.	8cc#J
4.E	#	4.g#X	4b
.	.	.	8ee
[4.AA	.	[4.a	4.cc#
4AA]	.	4a]	4cc#
=:|!|:	=:|!|:	=:|!|:	=:|!|:
8A	.	8ee	8a
=15	=15	=15	=15
4.A	.	4.ee	(8cc#L
.	.	.	8b)
.	.	.	8aJ
8r	.	8r	(8cc#L
8r	.	8r	8b)
8A	.	8cc#	8aJ
8G#XL	6	(8bL	4.ee
8A	.	8cc#	.
8BJ	.	8ddJ)	.
8EL	#	(8g#XL	8r
8F#	.	8a	8r
8G#XiJ	.	8bJ)	8ee
=16	=16	=16	=16
4.A	.	4.e	(8cc#L
.	.	.	8b)
.	.	.	8aJ
8r	.	8r	(8cc#L
8r	.	8r	8b)
8c#	6	8ee	8aJ
8A#XL	6	(8cc#L	4.ff#
8B	.	8dd	.
8c#J	.	8eeJ)	.
8F#L	#	(8a#XL	8r
8G#X	.	8b	8r
8A#XiJ	.	8cc#J)	8ff#
=17	=17	=17	=17
4.B	.	4.f#	(8ddL
.	.	.	8cc#)
.	.	.	8bJ
8r	.	8r	((8ddL
8r	.	8r	8cc#))
8B	.	8dd	8bJ
4.E	.	4.b	((8ggL
.	.	.	8ee))
.	.	.	8ff#J
8r	.	8r	((8ggL
8r	.	8r	8ee))
8E	.	8ee	8ggJ
=18	=18	=18	=18
8F#L	#	4.cc#	4a#X
8E	.	.	.
8F#J	.	.	8ff#
8DL	6	2.b	4b
8C#	.	.	.
8DJ	.	.	8ff#
8EL	6 5	.	(8eeL
8D	.	.	8ff#)
8EJ	.	.	8ddJ
8F#L	#	4.a#X	4.cc#
8E	.	.	.
8F#J	.	.	.
=19	=19	=19	=19
8BL	#	(8bL	4.b
8F#	.	8cc#)	.
8BJ	.	8dd#XJ	.
8BL	#	(8bL	8r
8F#	.	8cc#)	8r
8BJ	.	8dd#J	8b
4.G#X	6	4.ee	(8eeL
.	.	.	8b)
.	.	.	8eeJ
8r	.	8r	(8eeL
8r	.	8r	8b)
8E	#	8ee	8eeJ
=20	=20	=20	=20
8AL	.	(8eeL	4.cc#
8E	.	8cc#)	.
8AJ	.	8eeJ	.
8AL	.	(8cc#L	8r
8E	.	8ee)	8r
8AJ	.	8cc#J	8ee
4.C#	6	4.a	(8aaL
.	.	.	8ee)
.	.	.	8aaJ
8r	.	8r	(8aaL
8r	.	8r	8ee)
8A	.	8aa	8aaJ
=21	=21	=21	=21
8dL	.	(8aaL	4.ff#
8A	.	8ff#)	.
8dJ	.	8aaJ	.
8dL	.	(8ff#L	8r
8A	.	8aa)	8r
8dJ	.	8ff#J	8ff#
4.B	.	4.dd	(8ff#L
.	.	.	8gg#X)
.	.	.	8aaJ
8r	.	[4.b	(8gg#XiL
8r	.	.	8aa)
8B	.	.	8ff#J
=22	=22	=22	=22
8c#L	7 #	4.b]	4ee#X
8B	.	.	.
8c#J	.	.	8cc#
8dL	5	4.a	[4.ff#
8c#	.	.	.
8dJ	.	.	.
8BL	6 5	4.g#X	4.ff#]
8A	.	.	.
8BJ	.	.	.
8c#L	#	8.r	4.ee#Xi
8B	.	.	.
.	.	8.cc#	.
8c#J	.	.	.
=23	=23	=23	=23
4.F#	.	4.a	4.ff#
4.f#	.	4.r	8r
.	.	.	8ff#L
.	.	.	8gg#XJ
4.d#X	5	4.ff#	(8aaL
.	.	.	8ff#)
.	.	.	8gg#J
4.B	7 #	4.dd#X	(8aaL
.	.	.	8bb)
.	.	.	8ff#J
=24	=24	=24	=24
4.e	-	4.b	(8ggniL
.	.	.	8ee)
.	.	.	8ff#J
4.e	.	4.r	(8ggL
.	.	.	8ee)
.	.	.	8ff#J
4.c#	5	4.ee	(8ggL
.	.	.	8ee)
.	.	.	8ff#J
4.A	7	4.cc#	(8ggL
.	.	.	8aa)
.	.	.	8eeJ
=25	=25	=25	=25
4.d	.	4.a	(8ff#L
.	.	.	8dd)
.	.	.	8eeJ
4.F#	6	4.a	(8ff#L
.	.	.	8dd)
.	.	.	8ff#J
2.G	5	4.d	(8bL
.	.	.	8g)
.	.	.	8bJ
.	6	4.b	(8eeL
.	.	.	8gg)
.	.	.	8eeJ
=26	=26	=26	=26
2.A	5	4.e	(8cc#L
.	.	.	8a)
.	.	.	8cc#J
.	6	4.cc#	(8ff#L
.	.	.	8aa)
.	.	.	8ff#J
2.B	5	4.f#	(8ddL
.	.	.	8b)
.	6	.	8ddJ
.	.	4.dd	(8ggL
.	.	.	8bb)
.	.	.	8ggJ
=27	=27	=27	=27
2.c#	5	4.ee	(8eeL
.	.	.	8cc#)
.	.	.	8eeJ
.	6	4.ee	(8aaL
.	.	.	8bb)
.	.	.	8aaJ
4.d	.	4.a	(8ff#L
.	.	.	8aa)
.	.	.	8ff#J
4.c#	6	8r	(8eeL
.	.	8r	8aa)
.	.	8aa	8eeJ
=28	=28	=28	=28
4.B	6	4.gg	(8ddL
.	.	.	8gg)
.	.	.	8ddJ
4.A	6	4.ff#	(8cc#L
.	.	.	8ff#)
.	.	.	8cc#J
4.G	6	4.ee	(8bL
.	.	.	8ee)
.	.	.	8bJ
4.F#	6	[4.dd	(8aL
.	.	.	8dd)
.	.	.	8aJ
=29	=29	=29	=29
4.G	6 5	4.dd]	(8bL
.	.	.	8g)
.	.	.	8f#J
4.A	.	4.cc#	(8eL
.	.	.	8a)
.	.	.	8eJ
4.D	.	4.dd	(8f#L
.	.	.	8a)
.	.	.	8f#J
4.C#	6	8r	(8eL
.	.	8r	8a)
.	.	8a	8eJ
=30	=30	=30	=30
4.BB	6	4.g	(8dL
.	.	.	8g)
.	.	.	8dJ
4.AA	6	4.f#	(8c#L
.	.	.	8f#)
.	.	.	8c#J
4.GG	6	4.e	(8BL
.	.	.	8e)
.	.	.	8BJ
4.FF#	6	[4.d	(8AL
.	.	.	8d)
.	.	.	8AJ
=31	=31	=31	=31
4.GG	6 5	4.d]	(8BL
.	.	.	8g)
.	.	.	8f#J
4.AA	.	4.c#	4e
.	.	.	8a
[4.DD	.	[4.d	[4.f#
4DD]	.	4d]	4f#]
=:|!	=:|!	=:|!	=:|!
*-	*-	*-	*-
!!!system-decoration: [{s1,s2},s3,s4]
!!!YEM: CC BY-NC-SA 4.0; CCARH; DCML
!!!RDF**kern: i = editorial accidental